build/svg/chart2/res/regpow.svg

<svg height="30" viewBox="0 0 15 17.307692" width="30" xmlns="http://www.w3.org/2000/svg"><path d="m.0000011 16.153846h14.9999989v-15h-14.9999989z" fill="#fff"/><path d="m-.57692287 16.730769v-16.15384603h16.15384487v16.15384603zm.57692303-.576923h14.99999884v-15h-14.99999884z" fill="#232629"/><g fill="#762572"><path d="m.5769241 4.038461h1.153846v-1.153846h-1.153846z"/><path d="m2.8846158 6.923077h1.153846v-1.153846h-1.153846z"/><path d="m3.4615388 10.961538h1.153846v-1.1538457h-1.153846z"/><path d="m7.5 10.961538h1.1538459v-1.1538457h-1.1538459z"/><path d="m8.6538461 14.423076h1.1538459v-1.153846h-1.1538459z"/><path d="m12.692307 13.846154h1.153846v-1.153846h-1.153846z"/></g><path d="m1.4423082 1.153846c.00423 6.3461538 6.0576919 13.057717 13.5576908 12.980769" fill="none" stroke="#e95420" stroke-width=".576923"/></svg>

<svg height="30" viewBox="0 0 15 17.308" width="30" xmlns="http://www.w3.org/2000/svg"><path d="M0 16.154h15v-15H0z" fill="#fff"/><path d="M-.577 16.73V.578h16.154V16.73zM0 16.155h15v-15H0z" fill="#232629"/><g fill="#762572"><path d="M.577 4.038H1.73V2.885H.577zM2.885 6.923h1.153V5.77H2.885zM3.462 10.962h1.153V9.808H3.462zM7.5 10.962h1.154V9.808H7.5zM8.654 14.423h1.154V13.27H8.654zM12.692 13.846h1.154v-1.154h-1.154z"/></g><path d="M1.442 1.154C1.447 7.5 7.5 14.212 15 14.134" fill="none" stroke="#e95420" stroke-width=".577"/></svg>
